packages/foundations/assets/icons/functional/images/notification/information_circle_16.svg

<svg width="16" height="16" viewBox="0 0 16 16" fill="none" xmlns="http://www.w3.org/2000/svg">
<g clip-path="url(#clip0_187_193)">
<path fill-rule="evenodd" clip-rule="evenodd" d="M7.99998 1.60001C11.525 1.60001 14.4 4.47505 14.4 8.00001C14.4 11.525 11.525 14.4 7.99998 14.4C4.47498 14.4 1.59998 11.525 1.59998 8.00001C1.59998 4.47505 4.47498 1.60001 7.99998 1.60001ZM7.99998 3.20001C5.34998 3.20001 3.19998 5.35001 3.19998 8.00001C3.19998 10.65 5.34998 12.8 7.99998 12.8C10.65 12.8 12.8 10.65 12.8 8.00001C12.8 5.35001 10.65 3.20001 7.99998 3.20001ZM8.79998 6.40001V9.60001H10.4V11.2H5.59998V9.60001H7.19998V8.00001H5.87498V6.40001H8.79998ZM7.99998 4.05001C8.47498 4.05001 8.82498 4.40001 8.82498 4.87505C8.82498 5.35001 8.47498 5.70001 7.99998 5.70001C7.52498 5.70001 7.17498 5.35001 7.17498 4.87505C7.17498 4.40001 7.52498 4.05001 7.99998 4.05001Z" fill="#1A1C1F"/>
</g>
<defs>
<clipPath id="clip0_187_193">
<rect width="16" height="16" fill="white"/>
</clipPath>
</defs>
</svg>

<svg xmlns="http://www.w3.org/2000/svg" width="16" height="16" fill="none"><g clip-path="url(#a)"><path fill="#1A1C1F" fill-rule="evenodd" d="M8 1.6c3.525 0 6.4 2.875 6.4 6.4s-2.875 6.4-6.4 6.4S1.6 11.525 1.6 8 4.475 1.6 8 1.6m0 1.6a4.801 4.801 0 0 0 0 9.6 4.801 4.801 0 0 0 0-9.6m.8 3.2v3.2h1.6v1.6H5.6V9.6h1.6V8H5.875V6.4zM8 4.05c.475 0 .825.35.825.825S8.475 5.7 8 5.7a.8.8 0 0 1-.825-.825c0-.475.35-.825.825-.825" clip-rule="evenodd"/></g><defs><clipPath id="a"><path fill="#fff" d="M0 0h16v16H0z"/></clipPath></defs></svg>
